cssgg/facebook.svg

<svg
  width="24"
  height="24"
  viewBox="0 0 24 24"
  fill="none"
  xmlns="http://www.w3.org/2000/svg"
>
  <path
    d="M9.19795 21.5H13.198V13.4901H16.8021L17.198 9.50977H13.198V7.5C13.198 6.94772 13.6457 6.5 14.198 6.5H17.198V2.5H14.198C11.4365 2.5 9.19795 4.73858 9.19795 7.5V9.50977H7.19795L6.80206 13.4901H9.19795V21.5Z"
    fill="currentColor"
  />
</svg>

<svg viewBox="0 0 24 24" xmlns="http://www.w3.org/2000/svg"><path d="M9.19 21.5h4v-8.01h3.6l.39-3.99h-4V7.49c0-.56.44-1 1-1h3v-4h-3c-2.77 0-5.01 2.23-5.01 5v2h-2l-.4 3.98h2.39v8Z"/></svg>
